Core/Resources/LUT/RWG_Log3G10 to REC709_BT1886 with LOW_CONTRAST and R_3_Soft size_33 v1.13.cube
# RED Digital Cinema Output Transform LUT for IPP2
# LUT Name = RWG_Log3G10 to REC709_BT1886 with LOW_CONTRAST and R_3_Soft size_33 v1.13
# Generated by version 1.13
# Settings used in creation of this LUT are:
# Development Color Space = REC709
# Output Gamma Curve = BT1886
# Output Tonemap = LOW_CONTRAST
# Highlight Rolloff = Rolloff 3 - soft
# Resolution = 33 x 33 x 33
TITLE "RED IPP2 LUT to map REDWideGamutRGB/Log3G10 to REC709/BT1886/LOW_CONTRAST/Rolloff 3 - soft"
LUT_3D_SIZE 9
0.000000 0.000000 0.000000
0.108301 0.003505 0.003505
0.370646 0.018292 0.026890
0.684042 0.051743 0.073531
0.894861 0.114959 0.162371
0.987335 0.285934 0.402852
1.000003 0.619934 0.680645
1.000003 0.817940 0.845714
1.000003 0.920022 0.932695
0.003505 0.100523 0.003505
0.079020 0.090783 0.003505
0.364278 0.043760 0.019690
0.684408 0.064217 0.069228
0.896280 0.122897 0.161349
0.988038 0.295441 0.406834
1.000003 0.625596 0.684538
1.000003 0.821014 0.848212
1.000003 0.921695 0.934118
0.003505 0.350721 0.003990
0.003505 0.347699 0.003972
0.291386 0.323642 0.003721
0.672515 0.263084 0.040599
0.899478 0.217972 0.146272
0.990719 0.370223 0.419887
1.000003 0.654515 0.701723
1.000003 0.835433 0.859550
1.000003 0.929377 0.940606
0.003721 0.645461 0.009984
0.003825 0.644423 0.009921
0.016793 0.635988 0.009071
0.566732 0.610265 0.007392
0.879885 0.548244 0.093123
0.988976 0.541839 0.385588
1.000003 0.694998 0.706741
1.000003 0.848048 0.866401
1.000003 0.935205 0.945089
0.005933 0.837743 0.044768
0.006113 0.837373 0.044646
0.010023 0.834771 0.043488
0.170908 0.826916 0.039546
0.772668 0.808204 0.039816
0.972801 0.765494 0.249370
1.000003 0.774659 0.671441
1.000003 0.860257 0.859027
1.000003 0.936285 0.943413
0.028363 0.938862 0.166173
0.028586 0.938709 0.165744
0.032199 0.937791 0.163170
0.068489 0.935641 0.157235
0.561502 0.930031 0.147848
0.894455 0.918510 0.178406
1.000003 0.893541 0.580193
1.000003 0.899403 0.831085
1.000003 0.940503 0.935216
0.123569 0.984419 0.509643
0.123487 0.984350 0.508940
0.125362 0.983970 0.505171
0.150109 0.983296 0.499201
0.400225 0.981803 0.489510
0.797457 0.978116 0.482597
0.956810 0.971757 0.536758
1.000003 0.957959 0.779906
1.000003 0.960400 0.917402
0.482345 1.000003 0.734996
0.481509 1.000003 0.734572
0.478758 1.000003 0.732351
0.489112 1.000003 0.729244
0.562373 1.000003 0.725381
0.745237 1.000003 0.719904
0.912730 0.999290 0.719618
0.986939 0.995956 0.749729
1.000003 0.988214 0.889263
0.746970 1.000003 0.857262
0.746505 1.000003 0.857003
0.744289 1.000003 0.855654
0.743238 1.000003 0.853830
0.752472 1.000003 0.851852
0.797791 1.000003 0.849393
0.889058 1.000003 0.846557
0.965761 1.000003 0.848187
1.000003 1.000003 0.865449
0.003505 0.003505 0.092360
0.105387 0.003505 0.090894
0.370051 0.015006 0.062556
0.683918 0.049426 0.090694
0.894859 0.113617 0.172161
0.987352 0.285145 0.407457
1.000003 0.619963 0.681379
1.000003 0.818047 0.845900
1.000003 0.920096 0.932773
0.003505 0.082655 0.078319
0.074290 0.074292 0.074297
0.363441 0.036021 0.050391
0.684110 0.061232 0.086161
0.896184 0.121335 0.171292
0.988021 0.294363 0.411296
1.000003 0.625411 0.685105
1.000003 0.820995 0.848292
1.000003 0.921699 0.934136
0.003505 0.345728 0.005414
0.003505 0.343897 0.005201
0.290329 0.319453 0.004681
0.672180 0.259048 0.050639
0.899386 0.215431 0.154329
0.990705 0.369198 0.423753
1.000003 0.654375 0.702191
1.000003 0.835424 0.859619
1.000003 0.929385 0.940624
0.003721 0.643997 0.012191
0.003825 0.643686 0.012011
0.016425 0.635147 0.011170
0.566560 0.609270 0.009020
0.879779 0.547328 0.097809
0.988962 0.541381 0.389435
1.000003 0.694907 0.707156
1.000003 0.848047 0.866465
1.000003 0.935216 0.945108
0.005907 0.837297 0.046362
0.006097 0.837335 0.046297
0.009973 0.834715 0.045256
0.170398 0.826833 0.041376
0.772728 0.808098 0.041787
0.972780 0.765429 0.252451
1.000003 0.774640 0.671899
1.000003 0.860263 0.859094
1.000003 0.936297 0.943433
0.028247 0.938694 0.167112
0.028602 0.938748 0.167254
0.032208 0.937828 0.164778
0.068470 0.935675 0.158951
0.561501 0.930062 0.149618
0.894521 0.918540 0.180648
1.000003 0.893581 0.580823
1.000003 0.899430 0.831162
1.000003 0.940518 0.935238
0.123146 0.984346 0.509373
0.123655 0.984378 0.509710
0.125523 0.983997 0.505985
0.150263 0.983322 0.500081
0.400392 0.981830 0.490475
0.797522 0.978143 0.483611
0.956852 0.971785 0.537585
1.000003 0.957993 0.780032
1.000003 0.960421 0.917427
0.481243 1.000003 0.734627
0.482006 1.000003 0.734842
0.479247 1.000003 0.732625
0.489555 1.000003 0.729528
0.562662 1.000003 0.725676
0.745346 1.000003 0.720212
0.912777 0.999306 0.719925
0.986963 0.995974 0.749996
1.000003 0.988234 0.889311
0.746456 1.000003 0.857007
0.746743 1.000003 0.857141
0.744525 1.000003 0.855792
0.743469 1.000003 0.853970
0.752678 1.000003 0.851993
0.797927 1.000003 0.849538
0.889120 1.000003 0.846703
0.965791 1.000003 0.848330
1.000003 1.000003 0.865577
0.014864 0.004624 0.322964
0.057410 0.004472 0.322994
0.363534 0.004418 0.319735
0.681078 0.032662 0.292258
0.893662 0.100794 0.291136
0.987078 0.274446 0.448800
1.000003 0.617417 0.686743
1.000003 0.817474 0.846435
1.000003 0.919938 0.932786
0.007394 0.009496 0.321319
0.034719 0.008316 0.320365
0.356625 0.006663 0.316860
0.681144 0.040928 0.288322
0.894969 0.107797 0.289598
0.987747 0.283374 0.451863
1.000003 0.622914 0.690290
1.000003 0.820424 0.848794
1.000003 0.921539 0.934143
0.003505 0.294534 0.284297
0.003505 0.298694 0.288862
0.279661 0.279669 0.279691
0.667466 0.219847 0.248276
0.897538 0.191072 0.266605
0.990256 0.355980 0.461247
1.000003 0.651074 0.705860
1.000003 0.834250 0.859477
1.000003 0.928885 0.940316
0.003663 0.630685 0.088203
0.003721 0.630337 0.086994
0.013013 0.625603 0.077772
0.562521 0.595875 0.103339
0.877660 0.537027 0.164122
0.988474 0.535368 0.427205
1.000003 0.692500 0.710254
1.000003 0.847055 0.866283
1.000003 0.934784 0.944829
0.005649 0.833798 0.071250
0.005825 0.833834 0.071050
0.009413 0.833359 0.069246
0.165103 0.825175 0.067092
0.772599 0.806156 0.070364
0.972134 0.764160 0.288718
1.000003 0.773717 0.675321
1.000003 0.859541 0.858900
1.000003 0.935913 0.943160
0.027461 0.937626 0.182967
0.027824 0.937680 0.183036
0.032059 0.937839 0.182970
0.067999 0.935641 0.178749
0.560994 0.929979 0.170390
0.894776 0.918428 0.207239
1.000003 0.893675 0.585969
1.000003 0.899294 0.830941
1.000003 0.940263 0.934937
0.120849 0.983937 0.511399
0.121361 0.983968 0.511699
0.126204 0.984106 0.513098
0.150873 0.983424 0.507982
0.400921 0.981927 0.499305
0.797781 0.978239 0.493049
0.957049 0.971886 0.545159
1.000003 0.958165 0.780221
1.000003 0.960428 0.917064
0.475457 1.000003 0.733237
0.476233 1.000003 0.733444
0.481661 1.000003 0.734473
0.491725 1.000003 0.731487
0.564071 1.000003 0.727769
0.745865 1.000003 0.722444
0.913007 0.999379 0.722184
0.987082 0.996053 0.751909
1.000003 0.988348 0.889117
0.743792 1.000003 0.855787
0.744080 1.000003 0.855917
0.745721 1.000003 0.856577
0.744633 1.000003 0.854775
0.753713 1.000003 0.852821
0.798614 1.000003 0.850394
0.889431 1.000003 0.847584
0.965936 1.000003 0.849194
1.000003 1.000003 0.866339
0.036324 0.007562 0.609331
0.053915 0.007363 0.609830
0.327562 0.006069 0.610373
0.659914 0.007141 0.604169
0.884523 0.062689 0.571302
0.984182 0.224182 0.577671
1.000003 0.594623 0.705362
1.000003 0.808852 0.844664
1.000003 0.915990 0.930215
0.029835 0.010472 0.610773
0.046099 0.009996 0.610451
0.318631 0.007733 0.610937
0.659241 0.008920 0.604698
0.885703 0.067454 0.571676
0.984861 0.231498 0.579398
1.000003 0.600432 0.708244
1.000003 0.811867 0.846910
1.000003 0.917621 0.931568
0.005930 0.161897 0.607560
0.008344 0.157900 0.607272
0.228231 0.122569 0.603631
0.642112 0.079675 0.598203
0.887230 0.123883 0.565644
0.987345 0.292869 0.584209
1.000003 0.630405 0.720921
1.000003 0.826010 0.857087
1.000003 0.925094 0.937721
0.003505 0.581873 0.566335
0.003505 0.581319 0.566099
0.005733 0.574841 0.562843
0.550845 0.550858 0.550896
0.863383 0.490966 0.519762
0.984686 0.500279 0.563572
1.000003 0.674467 0.723291
1.000003 0.838346 0.862768
1.000003 0.930578 0.941756
0.004734 0.821170 0.389982
0.004852 0.821201 0.389371
0.007181 0.820622 0.384498
0.142644 0.815455 0.369131
0.769733 0.794856 0.392198
0.967105 0.755847 0.466244
1.000003 0.766182 0.689837
1.000003 0.852909 0.855091
1.000003 0.932018 0.940025
0.024912 0.934597 0.332144
0.025273 0.934653 0.331876
0.029515 0.934817 0.329868
0.064708 0.934116 0.322981
0.556666 0.928143 0.327186
0.894490 0.916365 0.372399
1.000003 0.892912 0.608829
1.000003 0.897122 0.826474
1.000003 0.937415 0.931422
0.116612 0.983110 0.541455
0.117130 0.983142 0.541616
0.122080 0.983282 0.542312
0.150223 0.983295 0.542324
0.399010 0.981750 0.538251
0.797576 0.978008 0.535188
0.957178 0.971635 0.579075
1.000003 0.958379 0.777567
1.000003 0.959664 0.912813
0.467025 1.000003 0.735933
0.467828 1.000003 0.736112
0.473525 1.000003 0.736995
0.493843 1.000003 0.737957
0.565306 1.000003 0.734989
0.746248 1.000003 0.730445
0.913210 0.999396 0.730461
0.987207 0.996075 0.758696
1.000003 0.988562 0.885518
0.740197 1.000003 0.855038
0.740486 1.000003 0.855163
0.742153 1.000003 0.855788
0.746034 1.000003 0.856545
0.754941 1.000003 0.854731
0.799410 1.000003 0.852455
0.889785 1.000003 0.849780
0.966105 1.000003 0.851382
1.000003 1.000003 0.868188
0.048474 0.009486 0.813995
0.057863 0.009332 0.814480
0.267289 0.008092 0.815862
0.642461 0.006634 0.814373
0.852147 0.013209 0.805148
0.976339 0.126928 0.773148
1.000003 0.513435 0.776604
1.000003 0.782707 0.849449
1.000003 0.904768 0.924941
0.044323 0.011124 0.815770
0.053734 0.010885 0.815705
0.256400 0.009294 0.817067
0.640530 0.007430 0.815524
0.852974 0.014699 0.806457
0.977052 0.131107 0.774485
1.000003 0.520617 0.778334
1.000003 0.786013 0.851322
1.000003 0.906514 0.926268
0.019007 0.045582 0.819237
0.023171 0.044712 0.819201
0.140145 0.037673 0.817830
0.611079 0.028511 0.816604
0.852528 0.034949 0.809527
0.979483 0.166680 0.779371
1.000003 0.558305 0.786124
1.000003 0.801570 0.859899
1.000003 0.914517 0.932324
0.004868 0.459424 0.809213
0.005273 0.457767 0.809193
0.022356 0.443743 0.808266
0.497401 0.403613 0.803725
0.830748 0.354249 0.798339
0.975207 0.376775 0.774488
1.000003 0.617600 0.788860
1.000003 0.815520 0.864902
1.000003 0.920329 0.936246
0.003663 0.786532 0.773486
0.003663 0.786507 0.773528
0.004141 0.785406 0.773159
0.164797 0.773672 0.765204
0.760160 0.760172 0.760209
0.953214 0.723715 0.740714
1.000003 0.738352 0.769964
1.000003 0.833579 0.857601
1.000003 0.921367 0.933702
0.017386 0.925377 0.674410
0.017684 0.925438 0.674282
0.021230 0.925599 0.673312
0.052770 0.924754 0.669890
0.539017 0.920401 0.660626
0.892120 0.907546 0.676021
0.997476 0.887037 0.714121
1.000003 0.890194 0.830316
1.000003 0.929702 0.924332
0.106354 0.980862 0.662426
0.106863 0.980897 0.662385
0.111760 0.981051 0.662072
0.139940 0.981064 0.660938
0.385420 0.980270 0.657027
0.795040 0.976258 0.661474
0.956765 0.969725 0.685871
1.000003 0.957848 0.788577
1.000003 0.957491 0.904405
0.454078 1.000003 0.760697
0.454923 1.000003 0.760792
0.461053 1.000003 0.761247
0.483326 1.000003 0.761664
0.563750 1.000003 0.761366
0.745255 1.000003 0.759901
0.912970 0.999052 0.761177
0.987201 0.995714 0.783997
1.000003 0.988779 0.879673
0.736046 1.000003 0.858922
0.736336 1.000003 0.859025
0.738043 1.000003 0.859537
0.742133 1.000003 0.860149
0.755642 1.000003 0.860581
0.799764 1.000003 0.858996
0.889897 1.000003 0.856940
0.966177 1.000003 0.858618
1.000003 1.000003 0.874153
0.044836 0.007966 0.933181
0.049529 0.007885 0.933507
0.137446 0.007181 0.934623
0.632332 0.006079 0.934292
0.852830 0.006091 0.930665
0.952246 0.024558 0.919670
1.000003 0.283477 0.892571
1.000003 0.723841 0.891123
1.000003 0.884224 0.927166
0.042241 0.008516 0.934435
0.047122 0.008417 0.934442
0.131426 0.007613 0.935545
0.630210 0.006365 0.935192
0.853079 0.006411 0.931522
0.952991 0.025733 0.920697
1.000003 0.290829 0.893612
1.000003 0.727950 0.892276
1.000003 0.886224 0.928283
0.023098 0.020333 0.937920
0.025754 0.020054 0.937944
0.082380 0.017608 0.937441
0.588481 0.013933 0.936927
0.845372 0.014173 0.933186
0.955291 0.037850 0.924614
1.000003 0.338463 0.898533
1.000003 0.747321 0.897779
1.000003 0.895380 0.933461
0.005845 0.202839 0.934080
0.006233 0.200444 0.934107
0.019863 0.178890 0.933682
0.404452 0.136596 0.931467
0.811616 0.108053 0.929264
0.951217 0.127082 0.923732
1.000003 0.453635 0.902658
1.000003 0.765178 0.902529
1.000003 0.901903 0.937184
0.004835 0.717804 0.920636
0.004960 0.717423 0.920687
0.007266 0.713747 0.920658
0.077436 0.700512 0.919231
0.725781 0.672756 0.915242
0.931254 0.649409 0.911267
1.000003 0.668032 0.897456
1.000003 0.793385 0.901233
1.000003 0.903497 0.935838
0.006159 0.904737 0.895678
0.006243 0.904786 0.895741
0.007366 0.904832 0.895939
0.024710 0.903468 0.895328
0.508091 0.897648 0.892125
0.886224 0.886233 0.886263
0.988720 0.867401 0.875669
1.000003 0.872385 0.887185
1.000003 0.915840 0.928160
0.080658 0.974704 0.845869
0.081093 0.974742 0.845857
0.085321 0.974908 0.845733
0.110067 0.974900 0.845154
0.344348 0.973936 0.842892
0.786438 0.970705 0.837610
0.955033 0.963521 0.845903
1.000003 0.953564 0.859008
1.000003 0.953057 0.910372
0.422473 1.000003 0.838437
0.423439 1.000003 0.838438
0.430499 1.000003 0.838418
0.456416 1.000003 0.838249
0.548346 1.000003 0.837468
0.739619 1.000003 0.835009
0.911301 0.997532 0.838478
0.986773 0.994080 0.850466
1.000003 0.988188 0.891457
0.729419 1.000003 0.879894
0.729721 1.000003 0.879943
0.731510 1.000003 0.880187
0.735897 1.000003 0.880457
0.750602 1.000003 0.880558
0.798487 1.000003 0.880110
0.889129 1.000003 0.879983
0.965901 1.000003 0.881964
1.000003 1.000003 0.893651
0.025321 0.004955 0.991625
0.027008 0.004930 0.991805
0.053223 0.004729 0.992518
0.618885 0.004250 0.992220
0.876418 0.004104 0.990944
0.962045 0.005116 0.986001
0.995281 0.045272 0.975282
1.000003 0.589175 0.954608
1.000003 0.847008 0.951651
0.023835 0.005009 0.992331
0.025678 0.004985 0.992349
0.050807 0.004786 0.993053
0.616618 0.004279 0.992743
0.877143 0.004130 0.991462
0.962549 0.005218 0.986495
0.995685 0.046457 0.975890
1.000003 0.595409 0.955254
1.000003 0.849516 0.952349
0.014048 0.006219 0.994842
0.015112 0.006177 0.994866
0.033381 0.005825 0.994772
0.574650 0.004862 0.994386
0.873024 0.004624 0.993022
0.961802 0.007252 0.987758
0.997304 0.056545 0.978534
1.000003 0.624728 0.958469
1.000003 0.860937 0.955729
0.003936 0.071835 0.991294
0.003990 0.071093 0.991325
0.004965 0.065130 0.991269
0.183804 0.045456 0.989671
0.802708 0.036907 0.988411
0.948734 0.042058 0.985396
0.997268 0.105014 0.979795
1.000003 0.652571 0.962406
1.000003 0.868634 0.959183
0.003505 0.630063 0.985056
0.003505 0.629009 0.985081
0.003721 0.618396 0.984983
0.038977 0.569870 0.983517
0.676941 0.508928 0.981528
0.921509 0.463707 0.979567
0.991888 0.492821 0.976188
1.000003 0.707534 0.964285
1.000003 0.870846 0.960852
0.006471 0.872208 0.972917
0.006551 0.872154 0.972960
0.007699 0.871516 0.973104
0.022262 0.868289 0.972831
0.363654 0.858771 0.971360
0.868046 0.842703 0.968469
0.977148 0.832628 0.966071
1.000003 0.837578 0.959091
1.000003 0.891766 0.958823
0.038169 0.963679 0.957923
0.038417 0.963716 0.957965
0.040962 0.963862 0.958150
0.056904 0.963743 0.958196
0.220465 0.962340 0.957453
0.775518 0.958121 0.955080
0.951788 0.951795 0.951817
1.000003 0.942620 0.946398
1.000003 0.943051 0.949934
0.334812 0.996931 0.933694
0.335980 0.996952 0.933705
0.344931 0.997053 0.933744
0.380143 0.997132 0.933707
0.501042 0.996975 0.933282
0.727492 0.996055 0.931691
0.907036 0.993899 0.928820
0.985634 0.990086 0.932869
1.000003 0.985202 0.936608
0.715034 1.000003 0.927745
0.715364 1.000003 0.927754
0.717322 1.000003 0.927790
0.722213 1.000003 0.927802
0.738786 1.000003 0.927673
0.792016 1.000003 0.927059
0.886191 1.000003 0.925547
0.964814 1.000003 0.927706
1.000003 1.000003 0.933498
0.006983 0.003663 1.000003
0.007193 0.003663 1.000003
0.011278 0.003663 1.000003
0.117641 0.003505 1.000003
0.926129 0.003505 1.000003
0.989817 0.003505 1.000003
1.000003 0.004516 1.000003
1.000003 0.082634 0.999946
1.000003 0.778892 0.984886
0.006604 0.003663 1.000003
0.006852 0.003663 1.000003
0.010520 0.003663 1.000003
0.111910 0.003505 1.000003
0.927555 0.003505 1.000003
0.990556 0.003505 1.000003
1.000003 0.004530 1.000003
1.000003 0.084233 1.000003
1.000003 0.782373 0.985266
0.004889 0.003663 1.000003
0.004980 0.003663 1.000003
0.006776 0.003663 1.000003
0.077038 0.003505 1.000003
0.930324 0.003505 1.000003
0.992621 0.003505 1.000003
1.000003 0.005112 1.000003
1.000003 0.095656 1.000003
1.000003 0.798054 0.987185
0.003505 0.004930 1.000003
0.003505 0.004899 1.000003
0.003721 0.004705 1.000003
0.017440 0.004230 1.000003
0.891763 0.003761 1.000003
0.980727 0.003990 1.000003
1.000003 0.022371 1.000003
1.000003 0.135524 1.000003
1.000003 0.807622 0.989771
0.003505 0.495913 1.000003
0.003505 0.493689 1.000003
0.003505 0.473883 1.000003
0.003505 0.364915 1.000003
0.555455 0.174052 1.000003
0.916940 0.145578 1.000003
0.990909 0.171541 1.000003
1.000003 0.366820 1.000003
1.000003 0.811107 0.992129
0.003505 0.857489 1.000003
0.003505 0.857264 1.000003
0.003505 0.854568 1.000003
0.003721 0.837466 1.000003
0.137656 0.807874 1.000003
0.845953 0.781096 1.000003
0.972390 0.766256 1.000003
1.000003 0.775787 0.998296
1.000003 0.850282 0.992312
0.019308 0.949179 0.996115
0.019407 0.949184 0.996140
0.020661 0.949141 0.996252
0.029460 0.948570 0.996280
0.108708 0.946026 0.995870
0.729272 0.939833 0.994650
0.942951 0.931486 0.992830
0.997391 0.927102 0.991529
1.000003 0.927043 0.988087
0.185484 0.991333 0.987791
0.186085 0.991355 0.987815
0.190933 0.991454 0.987931
0.213334 0.991514 0.988034
0.358376 0.991252 0.987933
0.693508 0.989985 0.987215
0.903047 0.987248 0.985661
0.983935 0.983940 0.983956
1.000003 0.979373 0.981174
0.683624 1.000003 0.975581
0.684001 1.000003 0.975593
0.686273 1.000003 0.975646
0.692140 1.000003 0.975692
0.712359 1.000003 0.975646
0.775830 1.000003 0.975270
0.881698 1.000003 0.974195
0.962681 1.000003 0.972693
1.000003 1.000003 0.974707
0.003663 0.003505 1.000003
0.003663 0.003505 1.000003
0.003721 0.003505 1.000003
0.006150 0.003505 1.000003
0.913058 0.003505 1.000003
1.000003 0.003505 1.000003
1.000003 0.003505 1.000003
1.000003 0.004434 1.000003
1.000003 0.153056 1.000003
0.003663 0.003505 1.000003
0.003663 0.003505 1.000003
0.003721 0.003505 1.000003
0.005838 0.003505 1.000003
0.910938 0.003505 1.000003
1.000003 0.003505 1.000003
1.000003 0.003505 1.000003
1.000003 0.004434 1.000003
1.000003 0.155868 1.000003
0.003505 0.003505 1.000003
0.003505 0.003505 1.000003
0.003505 0.003505 1.000003
0.004564 0.003505 1.000003
0.892091 0.003505 1.000003
1.000003 0.003505 1.000003
1.000003 0.003505 1.000003
1.000003 0.004643 1.000003
1.000003 0.173706 1.000003
0.003505 0.003505 1.000003
0.003505 0.003505 1.000003
0.003505 0.003505 1.000003
0.003663 0.003505 1.000003
0.785994 0.003505 1.000003
1.000003 0.003505 1.000003
1.000003 0.003505 1.000003
1.000003 0.013573 1.000003
1.000003 0.220596 1.000003
0.003505 0.017762 1.000003
0.003505 0.017190 1.000003
0.003505 0.014263 1.000003
0.003505 0.009533 1.000003
0.022372 0.004544 1.000003
0.977899 0.004079 1.000003
1.000003 0.020218 1.000003
1.000003 0.093508 1.000003
1.000003 0.411548 1.000003
0.003505 0.886642 1.000003
0.003505 0.886474 1.000003
0.003505 0.884399 1.000003
0.003505 0.871212 1.000003
0.003505 0.779165 1.000003
0.805198 0.660352 1.000003
0.969595 0.631601 1.000003
1.000003 0.657676 1.000003
1.000003 0.739763 1.000003
0.003505 0.950981 1.000003
0.003505 0.950970 1.000003
0.003505 0.950326 1.000003
0.003505 0.944421 1.000003
0.020578 0.930019 1.000003
0.615729 0.918227 1.000003
0.932897 0.906129 1.000003
0.994956 0.900381 1.000003
1.000003 0.903391 1.000003
0.073357 0.984637 1.000003
0.073469 0.984648 1.000003
0.074818 0.984686 1.000003
0.083332 0.984623 1.000003
0.137188 0.984056 1.000003
0.580801 0.982062 1.000003
0.885224 0.978304 1.000003
0.979549 0.974110 1.000003
1.000003 0.972069 1.000003
0.603937 1.000003 1.000003
0.604418 1.000003 1.000003
0.607428 1.000003 1.000003
0.615951 1.000003 1.000003
0.646548 1.000003 1.000003
0.737385 1.000003 1.000003
0.870807 1.000003 1.000003
0.961039 1.000003 1.000003
0.999999 1.000003 1.000003
