Core/Resources/LUT/RWG_Log3G10 to REC709_BT1886 with LOW_CONTRAST and R_3_Soft size_33 v1.13.cube
# RED Digital Cinema Output Transform LUT for IPP2
# LUT Name = RWG_Log3G10 to REC709_BT1886 with LOW_CONTRAST and R_3_Soft size_33 v1.13
# Generated by version 1.13
# Settings used in creation of this LUT are:
# Development Color Space = REC709
# Output Gamma Curve = BT1886
# Output Tonemap = LOW_CONTRAST
# Highlight Rolloff = Rolloff 3 - soft
# Resolution = 33 x 33 x 33
TITLE "RED IPP2 LUT to map REDWideGamutRGB/Log3G10 to REC709/BT1886/LOW_CONTRAST/Rolloff 3 - soft"
LUT_3D_SIZE 33
0.000000 0.000000 0.000000
0.000000 0.000000 0.000000
0.000662 0.000000 0.000000
0.067175 0.003505 0.003505
0.108301 0.003505 0.003505
0.162836 0.004037 0.004479
0.223711 0.006442 0.008957
0.292300 0.011701 0.017566
0.370646 0.018292 0.026890
0.452345 0.025218 0.036604
0.529674 0.032571 0.046868
0.608455 0.041345 0.059080
0.684042 0.051743 0.073531
0.749228 0.063410 0.089752
0.806190 0.077280 0.109095
0.854678 0.094117 0.132742
0.894861 0.114959 0.162371
0.927495 0.141508 0.200804
0.953230 0.176154 0.252202
0.972657 0.221806 0.320854
0.987335 0.285934 0.402852
0.997871 0.375841 0.483194
1.000003 0.467094 0.556161
1.000003 0.549254 0.622758
1.000003 0.619934 0.680645
1.000003 0.682002 0.731919
1.000003 0.734357 0.775495
1.000003 0.779635 0.813430
1.000003 0.817940 0.845714
1.000003 0.849785 0.872693
1.000003 0.877109 0.895950
1.000003 0.900032 0.915544
1.000003 0.920022 0.932695
0.000000 0.000000 0.000000
0.000000 0.000000 0.000000
0.000028 0.000000 0.000000
0.061468 0.003505 0.003505
0.105424 0.003505 0.003505
0.161116 0.004592 0.004220
0.222502 0.007932 0.008134
0.291379 0.013900 0.016539
0.369927 0.020418 0.025913
0.451889 0.027201 0.035712
0.529428 0.034397 0.046071
0.608441 0.042986 0.058407
0.684128 0.053198 0.072972
0.749388 0.064708 0.089302
0.806389 0.078446 0.108754
0.854890 0.095178 0.132512
0.895065 0.115947 0.162259
0.927678 0.142462 0.200828
0.953386 0.177123 0.252400
0.972784 0.222856 0.321265
0.987433 0.287166 0.403412
0.997944 0.377202 0.483797
1.000003 0.468192 0.556765
1.000003 0.550166 0.623337
1.000003 0.620707 0.681183
1.000003 0.682663 0.732409
1.000003 0.734927 0.775936
1.000003 0.780126 0.813822
1.000003 0.818363 0.846059
1.000003 0.850151 0.872996
1.000003 0.877423 0.896214
1.000003 0.900302 0.915773
1.000003 0.920252 0.932891
0.000000 0.000048 0.000000
0.000000 0.000023 0.000000
0.000002 0.000009 0.000000
0.051923 0.003505 0.003505
0.101188 0.003990 0.003505
0.158651 0.006634 0.003955
0.220778 0.011653 0.007191
0.290064 0.017603 0.015184
0.368891 0.023748 0.024601
0.451225 0.030182 0.034502
0.529073 0.037044 0.045001
0.608400 0.045319 0.057501
0.684225 0.055241 0.072215
0.749588 0.066517 0.088691
0.806645 0.080060 0.108287
0.855165 0.096641 0.132192
0.895331 0.117305 0.162097
0.927918 0.143768 0.200849
0.953591 0.178444 0.252654
0.972950 0.224283 0.321802
0.987563 0.288834 0.404148
0.998041 0.379021 0.484593
1.000003 0.469655 0.557563
1.000003 0.551379 0.624102
1.000003 0.621735 0.681895
1.000003 0.683541 0.733057
1.000003 0.735683 0.776520
1.000003 0.780776 0.814339
1.000003 0.818924 0.846515
1.000003 0.850635 0.873397
1.000003 0.877840 0.896563
1.000003 0.900660 0.916075
1.000003 0.920558 0.933152
0.003505 0.059123 0.003505
0.003505 0.056993 0.003505
0.003505 0.053868 0.003505
0.031527 0.049140 0.003505
0.094797 0.035088 0.003505
0.155096 0.019206 0.003721
0.218314 0.020401 0.006189
0.288181 0.024277 0.013439
0.367398 0.029168 0.022872
0.450277 0.034723 0.032912
0.528558 0.040923 0.043591
0.608309 0.048653 0.056297
0.684322 0.058111 0.071203
0.749826 0.069029 0.087868
0.806963 0.082286 0.107653
0.855511 0.098645 0.131751
0.895670 0.119155 0.161862
0.928226 0.145539 0.200855
0.953853 0.180229 0.252964
0.973165 0.226201 0.322486
0.987730 0.291065 0.405096
0.998166 0.381414 0.485621
1.000003 0.471574 0.558596
1.000003 0.552965 0.625093
1.000003 0.623076 0.682819
1.000003 0.684685 0.733899
1.000003 0.736667 0.777277
1.000003 0.781623 0.815012
1.000003 0.819653 0.847108
1.000003 0.851264 0.873916
1.000003 0.878381 0.897016
1.000003 0.901126 0.916468
1.000003 0.920955 0.933489
0.003505 0.100523 0.003505
0.003505 0.099470 0.003505
0.003505 0.097997 0.003505
0.003505 0.095934 0.003505
0.079020 0.090783 0.003505
0.147430 0.080050 0.003505
0.213108 0.061284 0.004889
0.284232 0.045895 0.010361
0.364278 0.043760 0.019690
0.448268 0.045761 0.029922
0.527428 0.049795 0.040899
0.608012 0.055952 0.053975
0.684408 0.064217 0.069228
0.750202 0.074274 0.086244
0.807506 0.086870 0.106383
0.856124 0.102732 0.130846
0.896280 0.122897 0.161349
0.928784 0.149094 0.200797
0.954334 0.183783 0.253484
0.973559 0.229990 0.323717
0.988038 0.295441 0.406834
0.998397 0.385974 0.487521
1.000003 0.475210 0.560514
1.000003 0.555956 0.626937
1.000003 0.625596 0.684538
1.000003 0.686829 0.735467
1.000003 0.738507 0.778688
1.000003 0.783205 0.816266
1.000003 0.821014 0.848212
1.000003 0.852438 0.874885
1.000003 0.879391 0.897859
1.000003 0.901994 0.917200
1.000003 0.921695 0.934118
0.003505 0.153251 0.003505
0.003505 0.152594 0.003505
0.003505 0.151683 0.003505
0.003505 0.150430 0.003505
0.006007 0.147902 0.003505
0.127715 0.142172 0.003505
0.200519 0.131592 0.003721
0.274785 0.118816 0.006207
0.356748 0.102859 0.013747
0.443254 0.084428 0.023992
0.524449 0.076901 0.035371
0.606880 0.076219 0.049082
0.684163 0.080150 0.064971
0.750646 0.087409 0.082665
0.808367 0.098022 0.103506
0.857187 0.112464 0.128702
0.897385 0.131654 0.160003
0.929822 0.157282 0.200377
0.955241 0.191841 0.254241
0.974311 0.238449 0.325939
0.988629 0.305056 0.410127
0.998841 0.395415 0.491196
1.000003 0.482655 0.564256
1.000003 0.562019 0.630552
1.000003 0.630665 0.687919
1.000003 0.691116 0.738555
1.000003 0.742174 0.781468
1.000003 0.786346 0.818737
1.000003 0.823712 0.850390
1.000003 0.854762 0.876797
1.000003 0.881387 0.899524
1.000003 0.903707 0.918645
1.000003 0.923155 0.935359
0.003505 0.211374 0.003505
0.003505 0.210874 0.003505
0.003505 0.210185 0.003505
0.003505 0.209242 0.003505
0.003721 0.207359 0.003505
0.048175 0.203159 0.003505
0.177559 0.196447 0.003505
0.258152 0.185468 0.004037
0.343451 0.173583 0.007451
0.434000 0.160265 0.016397
0.518623 0.144869 0.027768
0.604002 0.125245 0.042018
0.682788 0.114401 0.058579
0.750466 0.113557 0.077098
0.808958 0.119076 0.098839
0.858211 0.130140 0.125012
0.898587 0.147084 0.157392
0.931024 0.171331 0.199037
0.956331 0.205316 0.254515
0.975233 0.252231 0.328290
0.989365 0.320314 0.414084
0.999400 0.408954 0.495814
1.000003 0.493125 0.569054
1.000003 0.570394 0.635237
1.000003 0.637570 0.692327
1.000003 0.696896 0.742596
1.000003 0.747081 0.785113
1.000003 0.790529 0.821981
1.000003 0.827291 0.853251
1.000003 0.857837 0.879308
1.000003 0.884023 0.901712
1.000003 0.905967 0.920543
1.000003 0.925078 0.936990
0.003505 0.276529 0.003721
0.003505 0.276104 0.003721
0.003505 0.275519 0.003721
0.003505 0.274724 0.003721
0.003505 0.273152 0.003721
0.005804 0.269659 0.003663
0.114862 0.264120 0.003663
0.231499 0.256309 0.003505
0.322466 0.244204 0.004410
0.418696 0.231721 0.008881
0.508536 0.218328 0.019157
0.598196 0.202425 0.033362
0.679286 0.184815 0.050295
0.748828 0.167098 0.069545
0.808588 0.158502 0.092189
0.858635 0.161254 0.119403
0.899440 0.173025 0.152983
0.932043 0.194071 0.196068
0.957340 0.226379 0.253398
0.976133 0.273051 0.329713
0.990107 0.342099 0.417700
0.999974 0.426053 0.500479
1.000003 0.506011 0.574107
1.000003 0.580441 0.640279
1.000003 0.645683 0.697126
1.000003 0.703577 0.747025
1.000003 0.752685 0.789127
1.000003 0.795266 0.825563
1.000003 0.831320 0.856416
1.000003 0.861285 0.882089
1.000003 0.886970 0.904137
1.000003 0.908489 0.922648
1.000003 0.927222 0.938800
0.003505 0.350721 0.003990
0.003505 0.350335 0.003990
0.003505 0.349808 0.003990
0.003505 0.349099 0.003972
0.003505 0.347699 0.003972
0.004104 0.344595 0.003936
0.020731 0.339680 0.003897
0.169593 0.332761 0.003825
0.291386 0.323642 0.003721
0.394936 0.309820 0.004915
0.492405 0.295819 0.010928
0.588070 0.279980 0.023977
0.672515 0.263084 0.040599
0.744808 0.246062 0.060194
0.806512 0.230322 0.083502
0.857864 0.218973 0.111599
0.899478 0.217972 0.146272
0.932525 0.231403 0.190736
0.958007 0.259418 0.249889
0.976819 0.304363 0.328999
0.990719 0.370223 0.419887
1.000003 0.446470 0.504274
1.000003 0.520944 0.578627
1.000003 0.591707 0.644994
1.000003 0.654515 0.701723
1.000003 0.710676 0.751330
1.000003 0.758536 0.793063
1.000003 0.800147 0.829096
1.000003 0.835433 0.859550
1.000003 0.864783 0.884851
1.000003 0.889948 0.906550
1.000003 0.911029 0.924746
1.000003 0.929377 0.940606
0.003505 0.431503 0.004494
0.003505 0.431197 0.004487
0.003505 0.430779 0.004487
0.003505 0.430218 0.004472
0.003663 0.429106 0.004465
0.003850 0.426629 0.004434
0.006532 0.422670 0.004368
0.059141 0.417012 0.004279
0.225508 0.409397 0.004165
0.359221 0.399511 0.004037
0.467830 0.384220 0.005705
0.571764 0.367129 0.014907
0.661060 0.349085 0.030164
0.737294 0.330734 0.049408
0.801862 0.313031 0.072879
0.855227 0.298256 0.101454
0.898192 0.289984 0.136854
0.932093 0.292810 0.182335
0.958061 0.311435 0.242938
0.977103 0.348343 0.324735
0.991075 0.404454 0.419443
1.000003 0.470407 0.506241
1.000003 0.537938 0.581835
1.000003 0.604039 0.648746
1.000003 0.663815 0.705586
1.000003 0.717898 0.755063
1.000003 0.764326 0.796543
1.000003 0.804878 0.832260
1.000003 0.839363 0.862381
1.000003 0.868091 0.887362
1.000003 0.892745 0.908754
1.000003 0.913405 0.926670
1.000003 0.931386 0.942266
0.003505 0.508813 0.005375
0.003505 0.508580 0.005371
0.003505 0.508264 0.005363
0.003505 0.507838 0.005359
0.003663 0.506997 0.005339
0.003825 0.505123 0.005298
0.004814 0.502128 0.005218
0.016441 0.497837 0.005098
0.127283 0.492032 0.004940
0.286329 0.484446 0.004752
0.432104 0.474779 0.004571
0.543778 0.459333 0.007430
0.642962 0.442409 0.019884
0.724770 0.424654 0.037757
0.793476 0.406193 0.060620
0.849847 0.388624 0.089013
0.894929 0.374991 0.124488
0.930270 0.369755 0.170273
0.957164 0.378085 0.231501
0.976750 0.402890 0.315127
0.991021 0.444537 0.414798
1.000003 0.498418 0.505185
1.000003 0.557347 0.582807
1.000003 0.617546 0.650806
1.000003 0.673517 0.708133
1.000003 0.725068 0.757754
1.000003 0.769836 0.799179
1.000003 0.809226 0.834735
1.000003 0.842882 0.864644
1.000003 0.871001 0.889399
1.000003 0.895175 0.910563
1.000003 0.915453 0.928262
1.000003 0.933110 0.943650
0.003663 0.580089 0.006952
0.003663 0.579913 0.006947
0.003663 0.579674 0.006939
0.003663 0.579351 0.006929
0.003721 0.578716 0.006909
0.003850 0.577304 0.006852
0.004442 0.575051 0.006744
0.007894 0.571816 0.006573
0.037270 0.567424 0.006339
0.194181 0.561642 0.006060
0.356128 0.554207 0.005774
0.501344 0.545023 0.005532
0.609234 0.530080 0.010193
0.704753 0.513471 0.026095
0.779897 0.496386 0.047481
0.840613 0.479213 0.074815
0.888852 0.463731 0.109464
0.926441 0.453044 0.154491
0.954874 0.451534 0.215005
0.975454 0.463114 0.298254
0.990350 0.490087 0.403908
1.000003 0.530698 0.499529
1.000003 0.579427 0.580307
1.000003 0.632333 0.650204
1.000003 0.683548 0.708590
1.000003 0.731991 0.758779
1.000003 0.774803 0.800463
1.000003 0.812908 0.836102
1.000003 0.845712 0.865992
1.000003 0.873255 0.890674
1.000003 0.897007 0.911736
1.000003 0.916970 0.929322
1.000003 0.934373 0.944592
0.003721 0.645461 0.009984
0.003721 0.645327 0.009977
0.003721 0.645146 0.009969
0.003761 0.644902 0.009954
0.003825 0.644423 0.009921
0.003972 0.643364 0.009838
0.004410 0.641681 0.009683
0.006082 0.639271 0.009429
0.016793 0.635988 0.009071
0.072909 0.631641 0.008624
0.261063 0.626000 0.008136
0.429265 0.618953 0.007690
0.566732 0.610265 0.007392
0.668902 0.596142 0.014598
0.759739 0.580030 0.034440
0.827215 0.563932 0.060090
0.879885 0.548244 0.093123
0.920527 0.534823 0.136313
0.951085 0.526859 0.194596
0.973103 0.528129 0.275179
0.988976 0.541839 0.385588
0.999820 0.568796 0.488458
1.000003 0.605897 0.573789
1.000003 0.649863 0.646594
1.000003 0.694998 0.706741
1.000003 0.739409 0.758009
1.000003 0.779715 0.800319
1.000003 0.816232 0.836319
1.000003 0.848048 0.866401
1.000003 0.874973 0.891172
1.000003 0.898315 0.912265
1.000003 0.918003 0.929846
1.000003 0.935205 0.945089
0.003917 0.703690 0.015004
0.003917 0.703588 0.014995
0.003936 0.703450 0.014984
0.003972 0.703264 0.014967
0.004021 0.702901 0.014933
0.004176 0.702104 0.014845
0.004564 0.700848 0.014678
0.005691 0.699059 0.014400
0.010683 0.696627 0.013985
0.032797 0.693393 0.013425
0.133184 0.689163 0.012746
0.333309 0.683821 0.012041
0.500538 0.677149 0.011452
0.626705 0.669136 0.011226
0.722567 0.655904 0.020893
0.807490 0.640517 0.045625
0.866892 0.625628 0.076497
0.911964 0.611480 0.117115
0.945532 0.600111 0.172050
0.969577 0.594550 0.248261
0.986829 0.597876 0.359325
0.998568 0.612449 0.471614
1.000003 0.637583 0.563047
1.000003 0.671379 0.639896
1.000003 0.709073 0.702609
1.000003 0.748316 0.755537
1.000003 0.785335 0.798874
1.000003 0.819767 0.835528
1.000003 0.850311 0.866014
1.000003 0.876476 0.891031
1.000003 0.899345 0.912275
1.000003 0.918742 0.929945
1.000003 0.935755 0.945238
0.004250 0.755033 0.022004
0.004270 0.754954 0.021994
0.004288 0.754848 0.021981
0.004316 0.754705 0.021963
0.004377 0.754428 0.021924
0.004544 0.753823 0.021828
0.004915 0.752883 0.021651
0.005851 0.751559 0.021359
0.008864 0.749770 0.020921
0.020273 0.747391 0.020314
0.059381 0.744259 0.019542
0.216576 0.740265 0.018684
0.413620 0.735216 0.017867
0.566479 0.729064 0.017343
0.681145 0.721737 0.017492
0.769599 0.709542 0.029648
0.847893 0.695069 0.060360
0.899692 0.681432 0.098027
0.937569 0.668901 0.148792
0.964444 0.659573 0.219109
0.983631 0.655805 0.325114
0.996649 0.660414 0.447621
1.000003 0.674461 0.547036
1.000003 0.697621 0.629353
1.000003 0.726733 0.695652
1.000003 0.759566 0.750982
1.000003 0.792303 0.795865
1.000003 0.823944 0.833545
1.000003 0.852774 0.864704
1.000003 0.877925 0.890158
1.000003 0.900188 0.911700
1.000003 0.919237 0.929570
1.000003 0.936046 0.945004
0.004852 0.799596 0.031642
0.004868 0.799534 0.031630
0.004889 0.799451 0.031614
0.004925 0.799340 0.031592
0.004994 0.799125 0.031546
0.005183 0.798663 0.031437
0.005580 0.797954 0.031244
0.006473 0.796970 0.030938
0.008844 0.795657 0.030480
0.016058 0.793920 0.029835
0.036182 0.791628 0.028990
0.101287 0.788681 0.027992
0.301128 0.784912 0.026948
0.489716 0.780257 0.026095
0.627237 0.774628 0.025798
0.729790 0.768020 0.026651
0.810160 0.756947 0.041724
0.881905 0.743415 0.080080
0.926332 0.731117 0.126597
0.957236 0.720348 0.190341
0.979097 0.712577 0.286210
0.993875 0.710285 0.415904
1.000003 0.715317 0.525086
1.000003 0.728538 0.614352
1.000003 0.748621 0.685401
1.000003 0.774032 0.744022
1.000003 0.801434 0.791089
1.000003 0.829409 0.830254
1.000003 0.855905 0.862408
1.000003 0.879651 0.888526
1.000003 0.901068 0.910532
1.000003 0.919637 0.928724
1.000003 0.936178 0.944394
0.005933 0.837743 0.044768
0.005956 0.837694 0.044753
0.005985 0.837629 0.044732
0.006023 0.837542 0.044703
0.006113 0.837373 0.044646
0.006336 0.837015 0.044517
0.006796 0.836474 0.044300
0.007763 0.835738 0.043969
0.010023 0.834771 0.043488
0.015359 0.833506 0.042813
0.027931 0.831842 0.041910
0.061236 0.829693 0.040798
0.170908 0.826916 0.039546
0.391340 0.823440 0.038364
0.560380 0.819177 0.037590
0.682218 0.814092 0.037779
0.772668 0.808204 0.039816
0.845347 0.798185 0.058618
0.910095 0.785691 0.106619
0.947145 0.774917 0.164148
0.972801 0.765494 0.249370
0.989993 0.759227 0.376843
1.000003 0.757955 0.497041
1.000003 0.763044 0.594511
1.000003 0.774659 0.671441
1.000003 0.792249 0.734314
1.000003 0.813461 0.784293
1.000003 0.836852 0.825490
1.000003 0.860257 0.859027
1.000003 0.882060 0.886080
1.000003 0.902271 0.908746
1.000003 0.920142 0.927401
1.000003 0.936285 0.943413
0.008043 0.870240 0.062661
0.008072 0.870201 0.062641
0.008109 0.870149 0.062613
0.008162 0.870080 0.062575
0.008277 0.869947 0.062502
0.008567 0.869666 0.062341
0.009155 0.869249 0.062084
0.010326 0.868692 0.061714
0.012558 0.867976 0.061195
0.016870 0.867055 0.060484
0.025896 0.865854 0.059531
0.046476 0.864304 0.058327
0.100980 0.862286 0.056898
0.272507 0.859731 0.055408
0.477666 0.856552 0.054155
0.624206 0.852701 0.053654
0.730841 0.848169 0.054708
0.810291 0.842943 0.058647
0.875145 0.833992 0.081958
0.932386 0.822742 0.141684
0.963921 0.813121 0.217252
0.984571 0.805106 0.333449
0.997755 0.800122 0.463374
1.000003 0.799444 0.569679
1.000003 0.804061 0.653391
1.000003 0.814262 0.721446
1.000003 0.828912 0.775129
1.000003 0.846954 0.818992
1.000003 0.866459 0.854384
1.000003 0.885655 0.882706
1.000003 0.904166 0.906273
1.000003 0.921008 0.925561
1.000003 0.936539 0.942041
0.012295 0.897593 0.087025
0.012327 0.897561 0.086996
0.012372 0.897519 0.086958
0.012434 0.897464 0.086907
0.012566 0.897358 0.086809
0.012895 0.897136 0.086600
0.013529 0.896810 0.086282
0.014670 0.896385 0.085845
0.016706 0.895850 0.085263
0.020425 0.895175 0.084494
0.027579 0.894309 0.083479
0.042167 0.893198 0.082189
0.075501 0.891750 0.080604
0.164076 0.889898 0.078838
0.377167 0.887561 0.077129
0.555014 0.884688 0.075940
0.680984 0.881253 0.076011
0.773949 0.877226 0.078515
0.842931 0.872635 0.085416
0.898967 0.864906 0.113363
0.950815 0.854561 0.191595
0.976878 0.846202 0.293348
0.993122 0.839530 0.426236
1.000003 0.835425 0.540645
1.000003 0.835070 0.631359
1.000003 0.839175 0.705221
1.000003 0.847649 0.763318
1.000003 0.860048 0.810502
1.000003 0.875023 0.848277
1.000003 0.890940 0.878261
1.000003 0.907168 0.903021
1.000003 0.922546 0.923148
1.000003 0.937157 0.940247
0.018781 0.920040 0.119809
0.018811 0.920014 0.119770
0.018853 0.919980 0.119716
0.018912 0.919935 0.119646
0.019035 0.919850 0.119512
0.019346 0.919673 0.119230
0.019947 0.919415 0.118816
0.021027 0.919085 0.118272
0.022921 0.918678 0.117583
0.026259 0.918176 0.116710
0.032340 0.917545 0.115594
0.043794 0.916747 0.114191
0.067332 0.915709 0.112447
0.120765 0.914375 0.110420
0.271260 0.912673 0.108280
0.476983 0.910550 0.106424
0.624392 0.907971 0.105533
0.732275 0.904900 0.106682
0.812212 0.901341 0.111599
0.870552 0.897397 0.122937
0.920415 0.890494 0.159557
0.965608 0.881231 0.263994
0.986605 0.874142 0.390385
0.999655 0.868452 0.509960
1.000003 0.865160 0.606608
1.000003 0.864990 0.686170
1.000003 0.868461 0.749014
1.000003 0.875666 0.800002
1.000003 0.885973 0.840637
1.000003 0.898174 0.872676
1.000003 0.911598 0.898938
1.000003 0.925050 0.920132
1.000003 0.938375 0.938018
0.028363 0.938862 0.166173
0.028388 0.938842 0.166115
0.028424 0.938814 0.166038
0.028476 0.938778 0.165937
0.028586 0.938709 0.165744
0.028868 0.938566 0.165344
0.029424 0.938362 0.164773
0.030434 0.938103 0.164049
0.032199 0.937791 0.163170
0.035257 0.937416 0.162108
0.040635 0.936954 0.160805
0.050232 0.936380 0.159207
0.068489 0.935641 0.157235
0.105663 0.934693 0.154897
0.193543 0.933474 0.152292
0.392121 0.931933 0.149738
0.561502 0.930031 0.147848
0.684871 0.927729 0.147628
0.776606 0.925019 0.150691
0.843883 0.921966 0.159405
0.894455 0.918510 0.178406
0.937355 0.912562 0.226611
0.976583 0.904427 0.360899
0.994049 0.898266 0.480146
1.000003 0.893541 0.580193
1.000003 0.890751 0.664507
1.000003 0.890608 0.732020
1.000003 0.893496 0.787136
1.000003 0.899403 0.831085
1.000003 0.907696 0.865619
1.000003 0.917879 0.893762
1.000003 0.928915 0.916317
1.000003 0.940503 0.935216
0.031866 0.942429 0.182834
0.042085 0.954212 0.232802
0.042113 0.954189 0.232685
0.042154 0.954160 0.232532
0.042244 0.954104 0.232242
0.042485 0.953988 0.231647
0.042980 0.953825 0.230810
0.043904 0.953620 0.229776
0.045539 0.953378 0.228566
0.048365 0.953093 0.227163
0.053249 0.952751 0.225512
0.061677 0.952334 0.223562
0.076896 0.951806 0.221206
0.105636 0.951133 0.218415
0.165922 0.950267 0.215216
0.314981 0.949161 0.211848
0.498442 0.947776 0.208849
0.634972 0.946071 0.207168
0.737773 0.944031 0.208385
0.814050 0.941696 0.214802
0.871949 0.939012 0.230553
0.914616 0.936055 0.262684
0.950322 0.931110 0.320397
0.985357 0.923804 0.456137
0.999473 0.918610 0.555372
1.000003 0.914546 0.642112
1.000003 0.912224 0.713326
1.000003 0.912060 0.772343
1.000003 0.914399 0.819761
1.000003 0.919110 0.857088
1.000003 0.925981 0.887439
1.000003 0.934302 0.911642
1.000003 0.943769 0.931793
0.060953 0.966485 0.327268
0.060964 0.966471 0.327150
0.060981 0.966453 0.326996
0.061008 0.966428 0.326792
0.061070 0.966383 0.326406
0.061255 0.966288 0.325621
0.061670 0.966156 0.324523
0.062490 0.965992 0.323184
0.063986 0.965801 0.321645
0.066605 0.965581 0.319906
0.071118 0.965322 0.317919
0.078774 0.965014 0.315641
0.092168 0.964632 0.312940
0.116242 0.964150 0.309756
0.162989 0.963532 0.306025
0.267211 0.962739 0.301875
0.444752 0.961735 0.297721
0.588065 0.960480 0.294435
0.698854 0.958953 0.293578
0.782847 0.957178 0.297308
0.847679 0.955106 0.308533
0.896094 0.952789 0.330189
0.931241 0.950308 0.364165
0.961970 0.946041 0.418363
0.992023 0.939686 0.535228
1.000003 0.935156 0.621553
1.000003 0.931768 0.694570
1.000003 0.929780 0.756581
1.000003 0.929635 0.807174
1.000003 0.931505 0.847327
1.000003 0.935422 0.880063
1.000003 0.941053 0.906132
1.000003 0.948208 0.927745
0.087464 0.976501 0.426801
0.087463 0.976490 0.426691
0.087466 0.976474 0.426545
0.087472 0.976455 0.426356
0.087497 0.976417 0.425995
0.087606 0.976340 0.425264
0.087915 0.976233 0.424245
0.088605 0.976101 0.423014
0.089946 0.975950 0.421617
0.092367 0.975777 0.420071
0.096582 0.975580 0.418349
0.103710 0.975349 0.416428
0.115975 0.975070 0.414212
0.137348 0.974723 0.411642
0.176774 0.974283 0.408627
0.257041 0.973719 0.405167
0.409152 0.972999 0.401418
0.549097 0.972087 0.397799
0.662430 0.970960 0.395219
0.751453 0.969627 0.395135
0.822046 0.968048 0.399531
0.875858 0.966254 0.410662
0.915549 0.964307 0.429984
0.945300 0.962181 0.458821
0.970494 0.958689 0.500766
0.997291 0.953011 0.603397
1.000003 0.949160 0.676849
1.000003 0.946231 0.740400
1.000003 0.944543 0.793505
1.000003 0.944375 0.836301
1.000003 0.945891 0.871490
1.000003 0.949072 0.899608
1.000003 0.953892 0.922903
0.123569 0.984419 0.509643
0.123552 0.984410 0.509548
0.123534 0.984397 0.509421
0.123513 0.984381 0.509255
0.123487 0.984350 0.508940
0.123494 0.984287 0.508304
0.123664 0.984199 0.507420
0.124194 0.984092 0.506360
0.125362 0.983970 0.505171
0.127598 0.983834 0.503874
0.131597 0.983680 0.502459
0.138419 0.983504 0.500924
0.150109 0.983296 0.499201
0.170144 0.983042 0.497251
0.205929 0.982725 0.495001
0.274640 0.982320 0.492412
0.400225 0.981803 0.489510
0.525460 0.981142 0.486454
0.633965 0.980312 0.483681
0.723602 0.979316 0.482010
0.797457 0.978116 0.482597
0.855427 0.976733 0.487047
0.899140 0.975210 0.496781
0.932474 0.973526 0.513348
0.956810 0.971757 0.536758
0.978424 0.968752 0.572043
1.000003 0.963830 0.660436
1.000003 0.960442 0.725441
1.000003 0.957959 0.779906
1.000003 0.956549 0.824763
1.000003 0.956388 0.862180
1.000003 0.957637 0.892332
1.000003 0.960400 0.917402
0.121912 0.983918 0.506303
0.175235 0.990871 0.580489
0.175185 0.990860 0.580378
0.175123 0.990847 0.580232
0.175020 0.990822 0.579957
0.174876 0.990770 0.579398
0.174847 0.990698 0.578627
0.175158 0.990611 0.577706
0.176115 0.990513 0.576681
0.178166 0.990404 0.575573
0.182027 0.990283 0.574384
0.188765 0.990148 0.573119
0.200378 0.989991 0.571734
0.220155 0.989804 0.570205
0.254776 0.989574 0.568477
0.318656 0.989284 0.566505
0.418358 0.988914 0.564273
0.520335 0.988439 0.561816
0.616594 0.987836 0.559326
0.701535 0.987101 0.557245
0.775221 0.986201 0.556209
0.835427 0.985147 0.557256
0.882228 0.983970 0.561489
0.918762 0.982651 0.570195
0.945935 0.981247 0.583982
0.966545 0.979732 0.603699
0.984223 0.977278 0.631690
1.000003 0.972904 0.709750
1.000003 0.969956 0.766747
1.000003 0.967866 0.812876
1.000003 0.966634 0.852138
1.000003 0.966478 0.884212
1.000003 0.967560 0.911104
0.249563 0.995983 0.639838
0.249486 0.995976 0.639764
0.249385 0.995968 0.639666
0.249257 0.995957 0.639537
0.249032 0.995936 0.639294
0.248648 0.995893 0.638802
0.248307 0.995834 0.638124
0.248290 0.995763 0.637316
0.248950 0.995683 0.636421
0.250791 0.995595 0.635463
0.254590 0.995499 0.634445
0.261485 0.995394 0.633377
