Core/Resources/LUT/RWG_Log3G10 to REC709_BT1886 with LOW_CONTRAST and R_3_Soft size_33 v1.13.cube
# RED Digital Cinema Output Transform LUT for IPP2
# LUT Name = RWG_Log3G10 to REC709_BT1886 with LOW_CONTRAST and R_3_Soft size_33 v1.13
# Generated by version 1.13
# Settings used in creation of this LUT are:
# Development Color Space = REC709
# Output Gamma Curve = BT1886
# Output Tonemap = LOW_CONTRAST
# Highlight Rolloff = Rolloff 3 - soft
# Resolution = 33 x 33 x 33
TITLE "RED IPP2 LUT to map REDWideGamutRGB/Log3G10 to REC709/BT1886/LOW_CONTRAST/Rolloff 3 - soft"
LUT_3D_SIZE 5
0.000000 0.000000 0.000000
0.370646 0.018292 0.026890
0.894861 0.114959 0.162371
1.000003 0.619934 0.680645
1.000003 0.920022 0.932695
0.003505 0.350721 0.003990
0.291386 0.323642 0.003721
0.899478 0.217972 0.146272
1.000003 0.654515 0.701723
1.000003 0.929377 0.940606
0.005933 0.837743 0.044768
0.010023 0.834771 0.043488
0.772668 0.808204 0.039816
1.000003 0.774659 0.671441
1.000003 0.936285 0.943413
0.123569 0.984419 0.509643
0.125362 0.983970 0.505171
0.400225 0.981803 0.489510
0.956810 0.971757 0.536758
1.000003 0.960400 0.917402
0.746970 1.000003 0.857262
0.744289 1.000003 0.855654
0.752472 1.000003 0.851852
0.889058 1.000003 0.846557
1.000003 1.000003 0.865449
0.014864 0.004624 0.322964
0.363534 0.004418 0.319735
0.893662 0.100794 0.291136
1.000003 0.617417 0.686743
1.000003 0.919938 0.932786
0.003505 0.294534 0.284297
0.279661 0.279669 0.279691
0.897538 0.191072 0.266605
1.000003 0.651074 0.705860
1.000003 0.928885 0.940316
0.005649 0.833798 0.071250
0.009413 0.833359 0.069246
0.772599 0.806156 0.070364
1.000003 0.773717 0.675321
1.000003 0.935913 0.943160
0.120849 0.983937 0.511399
0.126204 0.984106 0.513098
0.400921 0.981927 0.499305
0.957049 0.971886 0.545159
1.000003 0.960428 0.917064
0.743792 1.000003 0.855787
0.745721 1.000003 0.856577
0.753713 1.000003 0.852821
0.889431 1.000003 0.847584
1.000003 1.000003 0.866339
0.048474 0.009486 0.813995
0.267289 0.008092 0.815862
0.852147 0.013209 0.805148
1.000003 0.513435 0.776604
1.000003 0.904768 0.924941
0.019007 0.045582 0.819237
0.140145 0.037673 0.817830
0.852528 0.034949 0.809527
1.000003 0.558305 0.786124
1.000003 0.914517 0.932324
0.003663 0.786532 0.773486
0.004141 0.785406 0.773159
0.760160 0.760172 0.760209
1.000003 0.738352 0.769964
1.000003 0.921367 0.933702
0.106354 0.980862 0.662426
0.111760 0.981051 0.662072
0.385420 0.980270 0.657027
0.956765 0.969725 0.685871
1.000003 0.957491 0.904405
0.736046 1.000003 0.858922
0.738043 1.000003 0.859537
0.755642 1.000003 0.860581
0.889897 1.000003 0.856940
1.000003 1.000003 0.874153
0.025321 0.004955 0.991625
0.053223 0.004729 0.992518
0.876418 0.004104 0.990944
0.995281 0.045272 0.975282
1.000003 0.847008 0.951651
0.014048 0.006219 0.994842
0.033381 0.005825 0.994772
0.873024 0.004624 0.993022
0.997304 0.056545 0.978534
1.000003 0.860937 0.955729
0.003505 0.630063 0.985056
0.003721 0.618396 0.984983
0.676941 0.508928 0.981528
0.991888 0.492821 0.976188
1.000003 0.870846 0.960852
0.038169 0.963679 0.957923
0.040962 0.963862 0.958150
0.220465 0.962340 0.957453
0.951788 0.951795 0.951817
1.000003 0.943051 0.949934
0.715034 1.000003 0.927745
0.717322 1.000003 0.927790
0.738786 1.000003 0.927673
0.886191 1.000003 0.925547
1.000003 1.000003 0.933498
0.003663 0.003505 1.000003
0.003721 0.003505 1.000003
0.913058 0.003505 1.000003
1.000003 0.003505 1.000003
1.000003 0.153056 1.000003
0.003505 0.003505 1.000003
0.003505 0.003505 1.000003
0.892091 0.003505 1.000003
1.000003 0.003505 1.000003
1.000003 0.173706 1.000003
0.003505 0.017762 1.000003
0.003505 0.014263 1.000003
0.022372 0.004544 1.000003
1.000003 0.020218 1.000003
1.000003 0.411548 1.000003
0.003505 0.950981 1.000003
0.003505 0.950326 1.000003
0.020578 0.930019 1.000003
0.932897 0.906129 1.000003
1.000003 0.903391 1.000003
0.603937 1.000003 1.000003
0.607428 1.000003 1.000003
0.646548 1.000003 1.000003
0.870807 1.000003 1.000003
0.999999 1.000003 1.000003
