Core/Resources/LUT/RWG_Log3G10_to_REC709_BT1886_with_LOW_CONTRAST_and_R_3_Soft_size_33.cube
# RED Digital Cinema Output Transform LUT for IPP2
# LUT Name = RWG_Log3G10_to_REC709_BT1886_with_LOW_CONTRAST_and_R_3_Soft_size_33.cube
# Generated by R3D SDK 7.2.1-41A41
# Settings used in creation of this LUT are:
# Development Color Space = REC709
# Output Gamma Curve = BT1886
# Output Tonemap = LOW_CONTRAST
# Highlight Rolloff = Rolloff 3 - soft
# Resolution = 33 x 33 x 33
TITLE "RED IPP2 LUT (Simple) to map REDWideGamutRGB/Log3G10 to REC709/BT1886/LOW_CONTRAST/Rolloff 3 - soft"
LUT_3D_SIZE 9
0.000000 0.000000 0.000000
0.108301 0.003505 0.003505
0.370645 0.018293 0.026890
0.684042 0.051743 0.073531
0.894861 0.114959 0.162371
0.987334 0.285934 0.402852
1.000003 0.619934 0.680645
1.000003 0.817940 0.845714
1.000003 0.920022 0.932695
0.003505 0.100523 0.003505
0.079020 0.090783 0.003505
0.364277 0.043760 0.019690
0.684408 0.064217 0.069228
0.896279 0.122897 0.161349
0.988037 0.295442 0.406834
1.000003 0.625596 0.684538
1.000003 0.821014 0.848212
1.000003 0.921694 0.934118
0.003505 0.350721 0.003990
0.003505 0.347699 0.003972
0.291386 0.323642 0.003761
0.672515 0.263084 0.040599
0.899478 0.217972 0.146273
0.990719 0.370223 0.419887
1.000003 0.654515 0.701723
1.000003 0.835433 0.859550
1.000003 0.929377 0.940606
0.003721 0.645461 0.009984
0.003825 0.644423 0.009921
0.016793 0.635988 0.009071
0.566732 0.610265 0.007392
0.879885 0.548244 0.093123
0.988976 0.541839 0.385588
1.000003 0.694998 0.706740
1.000003 0.848048 0.866401
1.000003 0.935205 0.945089
0.005933 0.837743 0.044768
0.006113 0.837373 0.044646
0.010025 0.834771 0.043488
0.170908 0.826915 0.039546
0.772667 0.808204 0.039816
0.972801 0.765495 0.249370
1.000003 0.774659 0.671441
1.000003 0.860257 0.859027
1.000003 0.936285 0.943413
0.028363 0.938862 0.166173
0.028586 0.938709 0.165744
0.032198 0.937791 0.163170
0.068489 0.935641 0.157235
0.561502 0.930031 0.147848
0.894455 0.918511 0.178406
1.000003 0.893541 0.580193
1.000003 0.899403 0.831084
1.000003 0.940503 0.935216
0.123568 0.984419 0.509643
0.123487 0.984350 0.508941
0.125362 0.983970 0.505171
0.150108 0.983295 0.499201
0.400223 0.981803 0.489511
0.797456 0.978116 0.482597
0.956810 0.971756 0.536759
1.000003 0.957959 0.779906
1.000003 0.960399 0.917402
0.482343 1.000003 0.734996
0.481507 1.000003 0.734573
0.478758 1.000003 0.732351
0.489111 1.000003 0.729244
0.562370 1.000003 0.725381
0.745237 1.000003 0.719904
0.912729 0.999290 0.719618
0.986939 0.995956 0.749729
1.000003 0.988214 0.889263
0.746969 1.000003 0.857262
0.746505 1.000003 0.857003
0.744287 1.000003 0.855654
0.743237 1.000003 0.853830
0.752472 1.000003 0.851852
0.797790 1.000003 0.849393
0.889057 1.000003 0.846557
0.965761 1.000003 0.848187
1.000003 1.000003 0.865449
0.003505 0.003505 0.092360
0.105387 0.003505 0.090893
0.370050 0.015006 0.062555
0.683918 0.049426 0.090694
0.894859 0.113617 0.172161
0.987352 0.285145 0.407456
1.000003 0.619963 0.681379
1.000003 0.818047 0.845900
1.000003 0.920096 0.932773
0.003505 0.082655 0.078319
0.074290 0.074292 0.074297
0.363441 0.036021 0.050391
0.684109 0.061232 0.086161
0.896184 0.121335 0.171293
0.988021 0.294364 0.411296
1.000003 0.625412 0.685105
1.000003 0.820995 0.848292
1.000003 0.921699 0.934137
0.003505 0.345728 0.005414
0.003505 0.343896 0.005205
0.290329 0.319454 0.004681
0.672180 0.259048 0.050639
0.899385 0.215431 0.154329
0.990706 0.369198 0.423753
1.000003 0.654376 0.702191
1.000003 0.835424 0.859619
1.000003 0.929385 0.940624
0.003721 0.643997 0.012191
0.003825 0.643686 0.012011
0.016425 0.635147 0.011170
0.566560 0.609270 0.009020
0.879779 0.547328 0.097809
0.988961 0.541382 0.389436
1.000003 0.694907 0.707156
1.000003 0.848047 0.866465
1.000003 0.935216 0.945108
0.005907 0.837297 0.046362
0.005875 0.818827 0.043667
0.009973 0.834714 0.045256
0.170396 0.826833 0.041376
0.772728 0.808098 0.041787
0.972780 0.765429 0.252450
1.000003 0.774640 0.671899
1.000003 0.860263 0.859093
1.000003 0.936297 0.943433
0.028247 0.938694 0.167112
0.028602 0.938748 0.167254
0.032208 0.937828 0.164778
0.068470 0.935675 0.158952
0.561500 0.930062 0.149618
0.894521 0.918540 0.180648
1.000003 0.893581 0.580822
1.000003 0.899429 0.831162
1.000003 0.940518 0.935238
0.123146 0.984346 0.509373
0.123655 0.984377 0.509711
0.125522 0.983997 0.505984
0.150263 0.983322 0.500082
0.400393 0.981829 0.490475
0.797521 0.978143 0.483611
0.955933 0.971017 0.532320
1.000003 0.957993 0.780032
1.000003 0.960421 0.917427
0.481240 1.000003 0.734626
0.482004 1.000003 0.734842
0.479245 1.000003 0.732625
0.489555 1.000003 0.729527
0.562660 1.000003 0.725676
0.745345 1.000003 0.720211
0.912777 0.999306 0.719925
0.986963 0.995974 0.749995
1.000003 0.988234 0.889311
0.746455 1.000003 0.857008
0.746742 1.000003 0.857141
0.744524 1.000003 0.855792
0.743468 1.000003 0.853969
0.752677 1.000003 0.851993
0.797927 1.000003 0.849538
0.889120 1.000003 0.846703
0.965790 1.000003 0.848330
1.000003 1.000003 0.865577
0.014865 0.004631 0.322964
0.057410 0.004472 0.322994
0.363534 0.004426 0.319735
0.681078 0.032662 0.292258
0.893661 0.100794 0.291136
0.987078 0.274446 0.448799
1.000003 0.617417 0.686743
1.000003 0.817473 0.846435
1.000003 0.919938 0.932786
0.007397 0.009496 0.321319
0.034719 0.008316 0.320365
0.356625 0.006666 0.316860
0.681144 0.040928 0.288322
0.894969 0.107797 0.289598
0.987747 0.283375 0.451862
1.000003 0.622915 0.690289
1.000003 0.820424 0.848794
1.000003 0.921539 0.934143
0.003505 0.300808 0.289900
0.003505 0.298694 0.288862
0.279661 0.279669 0.279691
0.667466 0.219847 0.248277
0.897538 0.191072 0.266605
0.990256 0.355981 0.461247
1.000003 0.651073 0.705860
1.000003 0.834250 0.859477
1.000003 0.928885 0.940316
0.003663 0.630685 0.088203
0.003721 0.630337 0.086995
0.013015 0.625603 0.077772
0.562521 0.595875 0.103339
0.877660 0.537026 0.164123
0.988474 0.535368 0.427205
1.000003 0.692500 0.710253
1.000003 0.847055 0.866283
1.000003 0.934784 0.944828
0.005649 0.833798 0.071250
0.005825 0.833834 0.071050
0.009413 0.833359 0.069246
0.165102 0.825175 0.067092
0.772598 0.806156 0.070364
0.972134 0.764160 0.288718
1.000003 0.773717 0.675321
1.000003 0.859541 0.858900
1.000003 0.935913 0.943160
0.027461 0.937626 0.182967
0.027824 0.937679 0.183035
0.032059 0.937839 0.182970
0.067999 0.935641 0.178749
0.560994 0.929979 0.170390
0.894775 0.918429 0.207239
1.000003 0.893675 0.585969
1.000003 0.899294 0.830941
1.000003 0.940263 0.934936
0.120848 0.983937 0.511398
0.121361 0.983968 0.511698
0.126204 0.984106 0.513098
0.150872 0.983424 0.507982
0.400920 0.981927 0.499305
0.797781 0.978239 0.493048
0.957049 0.971886 0.545159
1.000003 0.958165 0.780220
1.000003 0.960428 0.917064
0.475456 1.000003 0.733236
0.476231 1.000003 0.733444
0.481660 1.000003 0.734473
0.491725 1.000003 0.731487
0.564070 1.000003 0.727768
0.745865 1.000003 0.722445
0.913006 0.999379 0.722184
0.987082 0.996053 0.751909
1.000003 0.988347 0.889117
0.743791 1.000003 0.855787
0.744079 1.000003 0.855918
0.745721 1.000003 0.856577
0.744633 1.000003 0.854774
0.753713 1.000003 0.852821
0.798613 1.000003 0.850394
0.889431 1.000003 0.847584
0.965936 1.000003 0.849194
1.000003 1.000003 0.866338
0.036324 0.007562 0.609330
0.053914 0.007363 0.609830
0.327562 0.006073 0.610373
0.659914 0.007141 0.604169
0.884523 0.062690 0.571302
0.984182 0.224182 0.577671
1.000003 0.594622 0.705362
1.000003 0.808852 0.844664
1.000003 0.915990 0.930215
0.029835 0.010472 0.610773
0.046099 0.009998 0.610451
0.318631 0.007733 0.610937
0.659241 0.008920 0.604698
0.885703 0.067454 0.571676
0.984861 0.231498 0.579397
1.000003 0.600431 0.708244
1.000003 0.811867 0.846910
1.000003 0.917620 0.931568
0.005930 0.161897 0.607560
0.008344 0.157899 0.607272
0.228231 0.122570 0.603631
0.642112 0.079675 0.598202
0.887230 0.123883 0.565644
0.987345 0.292870 0.584209
1.000003 0.630405 0.720921
1.000003 0.826010 0.857087
1.000003 0.925094 0.937720
0.003505 0.581873 0.566335
0.003505 0.581319 0.566099
0.005733 0.574841 0.562843
0.550845 0.550858 0.550896
0.863383 0.490966 0.519762
0.984686 0.500279 0.563572
1.000003 0.674466 0.723291
1.000003 0.838346 0.862768
1.000003 0.930578 0.941756
0.004740 0.821170 0.389982
0.004852 0.821201 0.389370
0.007181 0.820622 0.384498
0.142643 0.815456 0.369131
0.769732 0.794856 0.392198
0.967105 0.755847 0.466244
1.000003 0.766182 0.689837
1.000003 0.852909 0.855091
1.000003 0.932018 0.940024
0.024912 0.934597 0.332144
0.025273 0.934653 0.331876
0.029515 0.934817 0.329869
0.064707 0.934116 0.322981
0.556665 0.928143 0.327186
0.894490 0.916365 0.372400
1.000003 0.892912 0.608829
1.000003 0.897123 0.826474
1.000003 0.937415 0.931422
0.116612 0.983109 0.541456
0.117129 0.983141 0.541616
0.122080 0.983282 0.542313
0.150222 0.983295 0.542323
0.399008 0.981750 0.538250
0.797576 0.978007 0.535187
0.957178 0.971635 0.579076
1.000003 0.958379 0.777566
1.000003 0.959664 0.912813
0.467025 1.000003 0.735932
0.467825 1.000003 0.736111
0.473524 1.000003 0.736994
0.493843 1.000003 0.737957
0.565304 1.000003 0.734989
0.746247 1.000003 0.730444
0.913210 0.999396 0.730461
0.987207 0.996075 0.758696
1.000003 0.988562 0.885518
0.740197 1.000003 0.855038
0.740485 1.000003 0.855163
0.742151 1.000003 0.855789
0.746033 1.000003 0.856545
0.754940 1.000003 0.854731
0.799409 1.000003 0.852455
0.889784 1.000003 0.849780
0.966105 1.000003 0.851382
1.000003 1.000003 0.868188
0.048474 0.009486 0.813995
0.057863 0.009332 0.814480
0.267289 0.008092 0.815862
0.642462 0.006636 0.814373
0.852147 0.013209 0.805147
0.976339 0.126928 0.773148
1.000003 0.513435 0.776604
1.000003 0.782708 0.849449
1.000003 0.904768 0.924940
0.044323 0.011124 0.815770
0.053734 0.010885 0.815705
0.256401 0.009294 0.817067
0.640530 0.007430 0.815524
0.852974 0.014699 0.806457
0.977052 0.131107 0.774485
1.000003 0.520618 0.778334
1.000003 0.786013 0.851321
1.000003 0.906514 0.926268
0.019007 0.045582 0.819237
0.023171 0.044712 0.819202
0.140145 0.037673 0.817830
0.611079 0.028511 0.816604
0.852527 0.034949 0.809527
0.979482 0.166679 0.779371
1.000003 0.558305 0.786124
1.000003 0.801570 0.859899
1.000003 0.914517 0.932323
0.004868 0.459424 0.809213
0.005273 0.457767 0.809193
0.022356 0.443743 0.808266
0.497401 0.403613 0.803725
0.830748 0.354249 0.798339
0.975207 0.376775 0.774488
1.000003 0.617600 0.788860
1.000003 0.815521 0.864901
1.000003 0.920329 0.936246
0.003663 0.786532 0.773486
0.003663 0.786507 0.773528
0.004141 0.785406 0.773159
0.099377 0.778376 0.769448
0.760160 0.760172 0.760210
0.953214 0.723715 0.740714
1.000003 0.738352 0.769964
1.000003 0.833579 0.857601
1.000003 0.921367 0.933702
0.017387 0.925377 0.674411
0.017684 0.925438 0.674282
0.021230 0.925599 0.673312
0.052770 0.924754 0.669890
0.539017 0.920401 0.660626
0.892119 0.907546 0.676021
0.997475 0.887038 0.714121
1.000003 0.890194 0.830315
1.000003 0.929702 0.924332
0.106354 0.980862 0.662425
0.106862 0.980897 0.662384
0.111760 0.981051 0.662072
0.139940 0.981064 0.660938
0.385418 0.980270 0.657027
0.795039 0.976258 0.661474
0.956764 0.969725 0.685870
1.000003 0.957848 0.788577
1.000003 0.957491 0.904404
0.454076 1.000003 0.760697
0.454923 1.000003 0.760792
0.461050 1.000003 0.761247
0.483323 1.000003 0.761663
0.563749 1.000003 0.761366
0.745255 1.000003 0.759901
0.912970 0.999053 0.761177
0.986889 0.995381 0.787829
1.000003 0.988779 0.879674
0.736045 1.000003 0.858922
0.736336 1.000003 0.859025
0.738043 1.000003 0.859537
0.742133 1.000003 0.860149
0.755642 1.000003 0.860581
0.799763 1.000003 0.858996
0.889897 1.000003 0.856940
0.966177 1.000003 0.858618
1.000003 1.000003 0.874153
0.044836 0.007966 0.933181
0.049529 0.007885 0.933507
0.137445 0.007181 0.934623
0.632332 0.006079 0.934292
0.852830 0.006094 0.930664
0.952246 0.024558 0.919670
1.000003 0.283478 0.892571
1.000003 0.723842 0.891123
1.000003 0.884224 0.927166
0.042241 0.008516 0.934435
0.047122 0.008417 0.934442
0.131426 0.007613 0.935545
0.630209 0.006365 0.935191
0.853078 0.006414 0.931522
0.952991 0.025734 0.920697
1.000003 0.290830 0.893611
1.000003 0.727950 0.892276
1.000003 0.886224 0.928282
0.023098 0.020334 0.937920
0.025754 0.020054 0.937944
0.082380 0.017608 0.937441
0.588481 0.013933 0.936927
0.845372 0.014174 0.933186
0.955291 0.037850 0.924614
1.000003 0.338463 0.898533
1.000003 0.747321 0.897779
1.000003 0.895380 0.933461
0.005845 0.202839 0.934080
0.006233 0.200443 0.934107
0.019863 0.178890 0.933682
0.404452 0.136597 0.931467
0.811616 0.108053 0.929264
0.951217 0.127082 0.923732
1.000003 0.453636 0.902657
1.000003 0.765178 0.902529
1.000003 0.901903 0.937184
0.004841 0.717804 0.920636
0.004960 0.717422 0.920687
0.007266 0.713747 0.920658
0.077435 0.700512 0.919231
0.725780 0.672756 0.915242
0.931254 0.649409 0.911267
1.000003 0.668032 0.897456
1.000003 0.793386 0.901233
1.000003 0.903497 0.935838
0.006162 0.904737 0.895678
0.006243 0.904785 0.895741
0.007366 0.904832 0.895939
0.024710 0.903468 0.895328
0.508090 0.897648 0.892125
0.886224 0.886233 0.886263
0.988720 0.867402 0.875669
1.000003 0.872385 0.887185
1.000003 0.915840 0.928160
0.080657 0.974703 0.845869
0.081092 0.974742 0.845856
0.085321 0.974908 0.845733
0.110067 0.974900 0.845154
0.344347 0.973936 0.842892
0.786438 0.970704 0.837609
0.955032 0.963521 0.845904
1.000003 0.953564 0.859008
1.000003 0.953056 0.910372
0.422469 1.000003 0.838437
0.423438 1.000003 0.838437
0.430498 1.000003 0.838418
0.456415 1.000003 0.838249
0.548345 1.000003 0.837468
0.739617 1.000003 0.835009
0.911300 0.997532 0.838478
0.986773 0.994080 0.850466
1.000003 0.988188 0.891457
0.729417 1.000003 0.879894
0.729721 1.000003 0.879944
0.731510 1.000003 0.880187
0.735896 1.000003 0.880457
0.750601 1.000003 0.880558
0.798487 1.000003 0.880110
0.889129 1.000003 0.879983
0.965901 1.000003 0.881964
1.000003 1.000003 0.893651
0.025321 0.004955 0.991625
0.027008 0.004930 0.991805
0.053223 0.004734 0.992518
0.618886 0.004250 0.992220
0.876418 0.004104 0.990944
0.962045 0.005121 0.986000
0.995281 0.045273 0.975282
1.000003 0.589177 0.954608
1.000003 0.847007 0.951651
0.023835 0.005009 0.992331
0.025678 0.004990 0.992348
0.050807 0.004786 0.993053
0.616620 0.004279 0.992743
0.877143 0.004130 0.991462
0.962548 0.005218 0.986494
0.995684 0.046458 0.975890
1.000003 0.595407 0.955254
1.000003 0.849516 0.952349
0.014048 0.006219 0.994842
0.015112 0.006177 0.994866
0.033381 0.005825 0.994772
0.574650 0.004862 0.994386
0.873024 0.004624 0.993022
0.961802 0.007252 0.987758
0.997304 0.056545 0.978534
1.000003 0.624729 0.958469
1.000003 0.860936 0.955729
0.003936 0.071835 0.991294
0.003990 0.071093 0.991324
0.004965 0.065130 0.991269
0.183804 0.045456 0.989671
0.802709 0.036908 0.988410
0.948734 0.042058 0.985396
0.997268 0.105014 0.979795
1.000003 0.652571 0.962406
1.000003 0.868634 0.959183
0.003505 0.630063 0.985056
0.003505 0.629009 0.985081
0.003761 0.618397 0.984983
0.038977 0.569870 0.983516
0.676940 0.508929 0.981528
0.921509 0.463708 0.979567
0.991888 0.492822 0.976188
1.000003 0.707534 0.964285
1.000003 0.870846 0.960852
0.006471 0.872207 0.972917
0.006551 0.872154 0.972959
0.007699 0.871516 0.973104
0.022262 0.868289 0.972831
0.363655 0.858771 0.971360
0.868045 0.842703 0.968469
0.977147 0.832628 0.966071
1.000003 0.837578 0.959091
1.000003 0.891766 0.958823
0.038169 0.963679 0.957923
0.038417 0.963716 0.957965
0.040962 0.963862 0.958150
0.056904 0.963743 0.958196
0.220462 0.962340 0.957453
0.775518 0.958121 0.955080
0.951788 0.951795 0.951817
1.000003 0.942620 0.946398
1.000003 0.943051 0.949934
0.334809 0.996931 0.933694
0.335978 0.996952 0.933705
0.344928 0.997053 0.933744
0.380141 0.997132 0.933706
0.501043 0.996975 0.933282
0.727491 0.996055 0.931691
0.907036 0.993899 0.928820
0.985634 0.990086 0.932868
1.000003 0.985202 0.936608
0.715033 1.000003 0.927745
0.715362 1.000003 0.927754
0.717322 1.000003 0.927790
0.722213 1.000003 0.927801
0.738786 1.000003 0.927673
0.792015 1.000003 0.927059
0.886191 1.000003 0.925547
0.964814 1.000003 0.927706
1.000003 1.000003 0.933498
0.006983 0.003663 1.000003
0.007196 0.003663 1.000003
0.011278 0.003663 1.000003
0.117641 0.003505 1.000003
0.926129 0.003505 1.000003
0.989816 0.003505 1.000003
1.000003 0.004516 1.000003
1.000003 0.082634 0.999946
1.000003 0.778892 0.984886
0.006604 0.003663 1.000003
0.006852 0.003663 1.000003
0.010520 0.003663 1.000003
0.111910 0.003505 1.000003
0.927555 0.003505 1.000003
0.990556 0.003505 1.000003
1.000003 0.004530 1.000003
1.000003 0.084233 1.000003
1.000003 0.782373 0.985265
0.004889 0.003663 1.000003
0.004985 0.003663 1.000003
0.006776 0.003663 1.000003
0.077038 0.003505 1.000003
0.930324 0.003505 1.000003
0.992621 0.003505 1.000003
1.000003 0.005112 1.000003
1.000003 0.095657 1.000003
1.000003 0.798055 0.987185
0.003505 0.004930 1.000003
0.003505 0.004899 1.000003
0.003721 0.004705 1.000003
0.017440 0.004230 1.000003
0.891762 0.003761 1.000003
0.980727 0.004006 1.000003
1.000003 0.022371 1.000003
1.000003 0.135525 1.000003
1.000003 0.807622 0.989771
0.003505 0.495914 1.000003
0.003505 0.493688 1.000003
0.003505 0.473882 1.000003
0.003505 0.364914 1.000003
0.555455 0.174052 1.000003
0.916940 0.145578 1.000003
0.990909 0.171541 1.000003
1.000003 0.366823 1.000003
1.000003 0.811107 0.992128
0.003505 0.857489 1.000003
0.003505 0.857263 1.000003
0.003505 0.854567 1.000003
0.003721 0.837467 1.000003
0.137656 0.807874 1.000003
0.845953 0.781095 1.000003
0.972390 0.766256 1.000003
1.000003 0.775787 0.998295
1.000003 0.850282 0.992311
0.019308 0.949178 0.996115
0.019407 0.949184 0.996140
0.020661 0.949141 0.996252
0.029459 0.948570 0.996280
0.108708 0.946026 0.995870
0.729271 0.939833 0.994650
0.942951 0.931486 0.992830
0.997391 0.927102 0.991529
1.000003 0.927042 0.988088
0.185483 0.991333 0.987791
0.186083 0.991354 0.987815
0.190931 0.991454 0.987931
0.213331 0.991514 0.988034
0.358374 0.991252 0.987933
0.693507 0.989985 0.987215
0.903046 0.987248 0.985661
0.983935 0.983940 0.983956
1.000003 0.979373 0.981174
0.683623 1.000003 0.975581
0.684001 1.000003 0.975593
0.686272 1.000003 0.975646
0.692138 1.000003 0.975692
0.712357 1.000003 0.975646
0.775830 1.000003 0.975270
0.881698 1.000003 0.974195
0.962681 1.000003 0.972693
1.000003 1.000003 0.974706
0.003663 0.003505 1.000003
0.003663 0.003505 1.000003
0.003761 0.003505 1.000003
0.006150 0.003505 1.000003
0.913057 0.003505 1.000003
1.000003 0.003505 1.000003
1.000003 0.003505 1.000003
1.000003 0.004442 1.000003
1.000003 0.153057 1.000003
0.003663 0.003505 1.000003
0.003663 0.003505 1.000003
0.003721 0.003505 1.000003
0.005838 0.003505 1.000003
0.910939 0.003505 1.000003
1.000003 0.003505 1.000003
1.000003 0.003505 1.000003
1.000003 0.004434 1.000003
1.000003 0.155868 1.000003
0.003505 0.003505 1.000003
0.003505 0.003505 1.000003
0.003505 0.003505 1.000003
0.004564 0.003505 1.000003
0.892095 0.003505 1.000003
1.000003 0.003505 1.000003
1.000003 0.003505 1.000003
1.000003 0.004650 1.000003
1.000003 0.173706 1.000003
0.003505 0.003505 1.000003
0.003505 0.003505 1.000003
0.003505 0.003505 1.000003
0.003663 0.003505 1.000003
0.785996 0.003505 1.000003
1.000003 0.003505 1.000003
1.000003 0.003505 1.000003
1.000003 0.013573 1.000003
1.000003 0.220597 1.000003
0.003505 0.017762 1.000003
0.003505 0.017191 1.000003
0.003505 0.014261 1.000003
0.003505 0.009533 1.000003
0.022373 0.004544 1.000003
0.977899 0.004079 1.000003
1.000003 0.020218 1.000003
1.000003 0.093508 1.000003
1.000003 0.411549 1.000003
0.003505 0.886642 1.000003
0.003505 0.886474 1.000003
0.003505 0.884398 1.000003
0.003505 0.871212 1.000003
0.003505 0.779164 1.000003
0.805197 0.660353 1.000003
0.969595 0.631601 1.000003
1.000003 0.657676 1.000003
1.000003 0.739764 1.000003
0.003505 0.950981 1.000003
0.003505 0.950970 1.000003
0.003505 0.950326 1.000003
0.003505 0.944421 1.000003
0.020578 0.930019 1.000003
0.615728 0.918227 1.000003
0.932896 0.906128 1.000003
0.994956 0.900381 1.000003
1.000003 0.903391 1.000003
0.073356 0.984637 1.000003
0.073468 0.984648 1.000003
0.074818 0.984686 1.000003
0.083331 0.984623 1.000003
0.137188 0.984056 1.000003
0.580800 0.982062 1.000003
0.885224 0.978304 1.000003
0.979548 0.974111 1.000003
1.000003 0.972069 1.000003
0.603935 1.000003 1.000003
0.604417 1.000003 1.000003
0.607426 1.000003 1.000003
0.615949 1.000003 1.000003
0.646546 1.000003 1.000003
0.737384 1.000003 1.000003
0.870807 1.000003 1.000003
0.961038 1.000003 1.000003
0.999999 1.000003 1.000003
